public/src/img/icon_dash.svg

<svg fill="#000000" height="24" viewBox="0 0 24 24" width="24" xmlns="http://www.w3.org/2000/svg">
    <path d="M0 0h24v24H0z" fill="none"/>
    <path d="M3 13h8V3H3v10zm0 8h8v-6H3v6zm10 0h8V11h-8v10zm0-18v6h8V3h-8z"/>
</svg>

<?xml version="1.0" encoding="UTF-8" standalone="no"?>
<svg width="24px" height="24px" viewBox="0 0 24 24" version="1.1" xmlns="http://www.w3.org/2000/svg" xmlns:xlink="http://www.w3.org/1999/xlink">
    <!-- Generator: Sketch 3.6 (26304) - http://www.bohemiancoding.com/sketch -->
    <title>Untitled</title>
    <desc>Created with Sketch.</desc>
    <defs></defs>
    <g id="Page-1" stroke="none" stroke-width="1" fill="none" fill-rule="evenodd" opacity="0.699160448">
        <g id="icon_dash">
            <path d="M0,0 L24,0 L24,24 L0,24 L0,0 Z" id="Shape"></path>
            <path d="M3,13 L11,13 L11,3 L3,3 L3,13 L3,13 Z M3,21 L11,21 L11,15 L3,15 L3,21 L3,21 Z M13,21 L21,21 L21,11 L13,11 L13,21 L13,21 Z M13,3 L13,9 L21,9 L21,3 L13,3 L13,3 Z" id="Shape" fill="#FFFFFF"></path>
        </g>
    </g>
</svg>
